packages/kaspersky-hexa-ui-icons/src/iconsSVGs/48/Integration.svg

<svg xmlns="http://www.w3.org/2000/svg" width="48" height="48" fill="none" viewBox="0 0 48 48"><path fill="#000" fill-rule="evenodd" d="M12 2C9.2386 2 7 4.2386 7 7s2.2386 5 5 5c1.3387 0 2.5545-.5261 3.4519-1.3828l17.5625 9.757c.4828.2682 1.0916.0942 1.3598-.3886s.0942-1.0915-.3885-1.3598L16.5985 8.9663A4.98 4.98 0 0 0 17 7c0-2.7614-2.2386-5-5-5M9 7c0-1.6569 1.3431-3 3-3s3 1.3431 3 3-1.3431 3-3 3-3-1.3431-3-3M7 41c0-2.4207 1.7202-4.4396 4.0049-4.901A1 1 0 0 1 11 36V16c0-.5523.4477-1 1-1s1 .4477 1 1v20q0 .0502-.0048.099C15.2798 36.5604 17 38.5793 17 41c0 2.7614-2.2386 5-5 5s-5-2.2386-5-5m29-17c0-2.7614 2.2386-5 5-5s5 2.2386 5 5-2.2386 5-5 5c-1.4945 0-2.8359-.6557-3.7522-1.6952l-17.2439 10.059c-.4771.2783-1.0894.1171-1.3677-.3599-.2783-.4771-.1171-1.0894.3599-1.3677l17.2555-10.0657A5 5 0 0 1 36 24m5-3c-1.6569 0-3 1.3431-3 3s1.3431 3 3 3 3-1.3431 3-3-1.3431-3-3-3M12 38c-1.6569 0-3 1.3431-3 3s1.3431 3 3 3 3-1.3431 3-3-1.3431-3-3-3"/></svg>

<svg width="48" height="48" viewBox="0 0 48 48" fill="none" xmlns="http://www.w3.org/2000/svg">
<path fill-rule="evenodd" clip-rule="evenodd" d="M12 2C9.23858 2 7 4.23858 7 7C7 9.76142 9.23858 12 12 12C13.3387 12 14.5545 11.4739 15.4519 10.6172L33.0144 20.3742C33.4971 20.6424 34.106 20.4684 34.3742 19.9856C34.6424 19.5029 34.4684 18.8941 33.9857 18.6258L16.5985 8.96633C16.8569 8.36278 17 7.6981 17 7C17 4.23858 14.7614 2 12 2ZM9 7C9 5.34315 10.3431 4 12 4C13.6569 4 15 5.34315 15 7C15 8.65685 13.6569 10 12 10C10.3431 10 9 8.65685 9 7Z" fill="black"/>
<path fill-rule="evenodd" clip-rule="evenodd" d="M11.0049 36.099C8.7202 36.5604 7 38.5793 7 41C7 43.7614 9.23858 46 12 46C14.7614 46 17 43.7614 17 41C17 38.5793 15.2798 36.5604 12.9952 36.099C12.9984 36.0665 13 36.0334 13 36L13 16C13 15.4477 12.5523 15 12 15C11.4477 15 11 15.4477 11 16L11 36C11 36.0334 11.0017 36.0665 11.0049 36.099ZM9 41C9 39.3431 10.3431 38 12 38C13.6569 38 15 39.3431 15 41C15 42.6569 13.6569 44 12 44C10.3431 44 9 42.6569 9 41Z" fill="black"/>
<path fill-rule="evenodd" clip-rule="evenodd" d="M36 24C36 21.2386 38.2386 19 41 19C43.7614 19 46 21.2386 46 24C46 26.7614 43.7614 29 41 29C39.5055 29 38.1641 28.3443 37.2478 27.3048L20.0039 37.3638C19.5268 37.6421 18.9145 37.4809 18.6362 37.0039C18.3579 36.5268 18.5191 35.9145 18.9961 35.6362L36.2516 25.5705C36.0884 25.0766 36 24.5486 36 24ZM41 21C39.3431 21 38 22.3431 38 24C38 25.6569 39.3431 27 41 27C42.6569 27 44 25.6569 44 24C44 22.3431 42.6569 21 41 21Z" fill="black"/>
</svg>
